X:1
T:Love Divine (Le Jeune), 87.87 D
T:Love Divine (Le Jeune), 87.87 D
T:George F. Le Jeune, 1872
T:Public Domain Courtesy of the Cyber Hymnal™
C:George F. Le Jeune, 1872
Z:Public Domain
Z:Courtesy of the Cyber Hymnal™
%%score ( 1 2 ) 3
L:1/8
Q:1/4=115
M:4/4
K:F
V:1 treble 
V:2 treble 
V:3 bass 
V:1
 F2 [FG]2 [FA]2 [FA]2 | [FB]2 [FA]2 [FA]2 [EG]2 | [EG]2 [_EA]2 [Dc]2 [DB]2 | [EG]2 [EA]2 F4 | %4
 F2 [FG]2 [FA]2 [FA]2 | [FB]2 [FA]2 [FA]2 [EG]2 | [EG]2 [_EA]2 [=Ec]2 [F=B]2 | [FA]2 [F=B]2 [Ec]4 | %8
 [Fc]2 [Fc]2 [Fd]2 [Fd]2 | [Ee]2 [Ed]2 [Fd]2 [Fc]2 | [Ac]2 [Ad]2 [GB]2 [GA]2 | [GB]2 [Ec]2 [FA]4 | %12
 F2 [FG]2 [FA]2 [_EA]2 | [DB]2 [^FA]2 [=FA]2 [FG]2 | [EG]2 [_EA]2 [Dc]2 [DB]2 | [EG]2 [EA]2 F4 |] %16
V:2
 F2 x6 | x8 | x8 | x4 F4 | x8 | x8 | x8 | x8 | x8 | x8 | x8 | x8 | x8 | x8 | x8 | x4 F4 |] %16
V:3
 [F,A,]2 [F,B,]2 [F,C]2 [F,C]2 | [F,D]2 [F,C]2 [C,C]2 [C,C]2 | [C,B,]2 [F,A,]2 [^F,A,]2 [G,B,]2 | %3
 [C,B,]2 [C,C]2 [F,A,]4 | [F,A,]2 [F,B,]2 [F,C]2 [F,C]2 | [F,D]2 [F,C]2 [C,C]2 [C,C]2 | %6
 [C,C]2 [^F,C]2 [G,C]2 [G,D]2 | [G,,C]2 [G,,D]2 [C,C]4 | [A,C]2 [A,C]2 B,2 B,2 | %9
 [G,B,]2 [G,B,]2 A,2 [A,C]2 | [^F,_E]2 [F,D]2 [G,D]2 [=F,D]2 | [E,C]2 [C,C]2 [F,C]4 | %12
 [F,A,]2 [F,B,]2 [F,C]2 [^F,C]2 | [G,B,]2 [D,C]2 [G,,=B,]2 [G,,B,]2 | %14
 [C,B,]2 [F,A,]2 [^F,A,]2 [G,B,]2 | [C,B,]2 [C,C]2 [F,A,]4 |] %16

